actions/scalable/edit-table-cell-split.svg

<svg height="22" width="22" xmlns="http://www.w3.org/2000/svg" xmlns:sodipodi="http://sodipodi.sourceforge.net/DTD/sodipodi-0.dtd" xmlns:inkscape="http://www.inkscape.org/namespaces/inkscape">
 <path d="m3 3v1 15h1 14 1v-15-1h-16zm1 1h4v4h1v-4h4v4h1v-4h4v4h-4v1h4v4h-4v1h4v4h-4v-4h-1v4h-4v-4h-1v4h-4v-4h4v-1h-4v-4h4v-1h-4v-4z" fill="#4d4d4d" transform="matrix(1 0 0 1 0 0)"/>
 <path d="m7 7v8h8v-8h-8zm1 1h6v1l-2 2 2 2v1h-6v-6z" fill="#da4453" transform="matrix(1 0 0 1 0 0)"/>
</svg>

<?xml version="1.0" encoding="UTF-8" standalone="no"?>
<!-- Created with Inkscape (http://www.inkscape.org/) -->

<svg
   xmlns:dc="http://purl.org/dc/elements/1.1/"
   xmlns:cc="http://creativecommons.org/ns#"
   xmlns:rdf="http://www.w3.org/1999/02/22-rdf-syntax-ns#"
   xmlns:svg="http://www.w3.org/2000/svg"
   xmlns="http://www.w3.org/2000/svg"
   xmlns:sodipodi="http://sodipodi.sourceforge.net/DTD/sodipodi-0.dtd"
   xmlns:inkscape="http://www.inkscape.org/namespaces/inkscape"
   width="22"
   height="22"
   id="svg3815"
   version="1.1"
   inkscape:version="0.48+devel r"
   sodipodi:docname="edit-table-cell-split.svg">
  <defs
     id="defs3817" />
  <sodipodi:namedview
     id="base"
     pagecolor="#ffffff"
     bordercolor="#666666"
     borderopacity="1.0"
     inkscape:pageopacity="0.0"
     inkscape:pageshadow="2"
     inkscape:zoom="26.436636"
     inkscape:cx="8.631971"
     inkscape:cy="12.40601"
     inkscape:document-units="px"
     inkscape:current-layer="layer1"
     showgrid="true"
     fit-margin-top="0"
     fit-margin-left="0"
     fit-margin-right="0"
     fit-margin-bottom="0"
     inkscape:window-width="1366"
     inkscape:window-height="668"
     inkscape:window-x="-2"
     inkscape:window-y="23"
     inkscape:window-maximized="1"
     inkscape:showpageshadow="false"
     borderlayer="false">
    <sodipodi:guide
       position="2.0000044,19.999979"
       orientation="18,0"
       id="guide3338" />
    <sodipodi:guide
       position="2.0000044,1.9999785"
       orientation="0,18"
       id="guide3340" />
    <sodipodi:guide
       position="20.000004,1.9999785"
       orientation="-18,0"
       id="guide3342" />
    <sodipodi:guide
       position="20.000004,19.999979"
       orientation="0,-18"
       id="guide3344" />
    <sodipodi:guide
       position="3.0000044,18.999979"
       orientation="16,0"
       id="guide3346" />
    <sodipodi:guide
       position="3.0000044,2.9999785"
       orientation="0,16"
       id="guide3348" />
    <sodipodi:guide
       position="19.000004,2.9999785"
       orientation="-16,0"
       id="guide3350" />
    <sodipodi:guide
       position="17,19"
       orientation="0,-16"
       id="guide3352" />
    <inkscape:grid
       type="xygrid"
       id="grid3354" />
  </sodipodi:namedview>
  <metadata
     id="metadata3820">
    <rdf:RDF>
      <cc:Work
         rdf:about="">
        <dc:format>image/svg+xml</dc:format>
        <dc:type
           rdf:resource="http://purl.org/dc/dcmitype/StillImage" />
        <dc:title></dc:title>
      </cc:Work>
    </rdf:RDF>
  </metadata>
  <g
     inkscape:label="Capa 1"
     inkscape:groupmode="layer"
     id="layer1"
     transform="translate(-461.71429,-525.79075)">
    <path
       style="opacity:1;fill:#666666;fill-opacity:1;stroke:none"
       d="M 3 3 L 3 4 L 3 19 L 4 19 L 18 19 L 19 19 L 19 4 L 19 3 L 3 3 z M 4 4 L 8 4 L 8 8 L 9 8 L 9 4 L 13 4 L 13 8 L 14 8 L 14 4 L 18 4 L 18 8 L 14 8 L 14 9 L 18 9 L 18 13 L 14 13 L 14 14 L 18 14 L 18 18 L 14 18 L 14 14 L 13 14 L 13 18 L 9 18 L 9 14 L 8 14 L 8 18 L 4 18 L 4 14 L 8 14 L 8 13 L 4 13 L 4 9 L 8 9 L 8 8 L 4 8 L 4 4 z "
       id="rect4108"
       transform="translate(461.71429,525.79075)" />
    <path
       style="opacity:1;fill:#da4453;fill-opacity:1;stroke:none"
       d="M 7 7 L 7 15 L 15 15 L 15 7 L 7 7 z M 8 8 L 14 8 L 14 9 L 12 11 L 14 13 L 14 14 L 8 14 L 8 8 z "
       transform="translate(461.71429,525.79075)"
       id="rect4135" />
  </g>
</svg>
